svg/u2649.svg

<svg viewBox="0 0 128 128" xmlns="http://www.w3.org/2000/svg">
  <circle cx="64" cy="64" r="60" fill="#E64A19"/>
  <circle cx="60.1" cy="63.1" r="56.1" fill="#FF7043"/>
  <path d="M24,29.7c4.5-7.1,14.1-13,24.1-14.8c2.5-0.4,5-0.6,7.1,0.2 c1.6,0.6,2.9,2.1,2,3.8c-0.7,1.4-2.6,2-4.1,2.5c-9.3,3-17.9,6.4-23.1,14.3c-2,3-4.9,14.4-8.6,12.3C17.5,45.7,18.3,38.5,24,29.7z" opacity="0.3" fill="#FFFFFF" enable-background="new "/>
  <path d="M94.8,36.7c0.6-1.4,0.4-3-0.5-4.2s-2.3-2-3.8-2H90c-1.9,0-3.6,1.1-4.3,2.9 c-3.4,8.5-9.9,12.1-21.8,12.1s-18.4-3.6-21.8-12.1c-0.7-1.8-2.4-2.9-4.3-2.9h-0.5c-1.5,0-2.9,0.8-3.8,2c-0.9,1.2-1,2.8-0.5,4.2 c2.4,5.8,9,11.9,14.3,15.3c-7.6,5.3-12.6,14.1-12.6,24.1c0,16.2,13.1,29.3,29.3,29.3s29.3-13.1,29.3-29.3c0-10.1-5.1-19-12.9-24.3 C85.8,48.4,92.6,42.4,94.8,36.7z M64,96.5c-11.2,0-20.3-9.1-20.3-20.3S52.8,55.8,64,55.8s20.3,9.1,20.3,20.3S75.2,96.5,64,96.5z" fill="#FAFAFA"/>
</svg>

<svg viewBox="0 0 128 128" xmlns="http://www.w3.org/2000/svg">
  <defs/>
  <path d="M124,64 A60 60 0 1 1 4,64 A60 60 0 1 1 124,64 Z" fill="#E64A19"/>
  <path d="M116.2,63.1 A56.1 56.1 0 1 1 4,63.1 A56.1 56.1 0 1 1 116.2,63.1 Z" fill="#FF7043"/>
  <path d="M24,29.7 C28.5,22.6 38.1,16.7 48.1,14.9 C50.6,14.5 53.1,14.3 55.2,15.1 C56.8,15.7 58.1,17.2 57.2,18.9 C56.5,20.3 54.6,20.9 53.1,21.4 C43.8,24.4 35.2,27.8 30,35.7 C28,38.7 25.1,50.1 21.4,48 C17.5,45.7 18.3,38.5 24,29.7 Z" fill="#FFFFFF" opacity="0.3"/>
  <path d="M94.8,36.7 C95.4,35.3 95.2,33.7 94.3,32.5 C93.4,31.3 92,30.5 90.5,30.5 L90,30.5 C88.1,30.5 86.4,31.6 85.7,33.4 C82.3,41.9 75.8,45.5 63.9,45.5 C52,45.5 45.5,41.9 42.1,33.4 C41.4,31.6 39.7,30.5 37.8,30.5 L37.3,30.5 C35.8,30.5 34.4,31.3 33.5,32.5 C32.6,33.7 32.5,35.3 33,36.7 C35.4,42.5 42,48.6 47.3,52 C39.7,57.3 34.7,66.1 34.7,76.1 C34.7,92.3 47.8,105.4 64,105.4 C80.2,105.4 93.3,92.3 93.3,76.1 C93.3,66 88.2,57.1 80.4,51.8 C85.8,48.4 92.6,42.4 94.8,36.7 Z M64,96.5 C52.8,96.5 43.7,87.4 43.7,76.2 C43.7,65 52.8,55.8 64,55.8 C75.2,55.8 84.3,64.9 84.3,76.1 C84.3,87.3 75.2,96.5 64,96.5 Z" fill="#FAFAFA"/>
</svg>
